src/nextgis_connect/icons/mActionNewFolder.svg

<?xml version="1.0" encoding="UTF-8" standalone="no"?>
<svg
   width="32"
   height="32"
   viewBox="0 0 32 32"
   fill="none"
   version="1.1"
   id="svg5"
   sodipodi:docname="mActionNewFolder.svg"
   inkscape:version="1.4 (e7c3feb100, 2024-10-09)"
   xmlns:inkscape="http://www.inkscape.org/namespaces/inkscape"
   xmlns:sodipodi="http://sodipodi.sourceforge.net/DTD/sodipodi-0.dtd"
   xmlns="http://www.w3.org/2000/svg"
   xmlns:svg="http://www.w3.org/2000/svg">
  <defs
     id="defs5" />
  <sodipodi:namedview
     id="namedview5"
     pagecolor="#505050"
     bordercolor="#eeeeee"
     borderopacity="1"
     inkscape:showpageshadow="0"
     inkscape:pageopacity="0"
     inkscape:pagecheckerboard="0"
     inkscape:deskcolor="#d1d1d1"
     inkscape:zoom="12.136364"
     inkscape:cx="2.8838951"
     inkscape:cy="14.131086"
     inkscape:window-width="1920"
     inkscape:window-height="1010"
     inkscape:window-x="0"
     inkscape:window-y="0"
     inkscape:window-maximized="1"
     inkscape:current-layer="g7"
     showguides="true">
    <sodipodi:guide
       position="2,32"
       orientation="-1,0"
       id="guide7"
       inkscape:locked="false"
       inkscape:label=""
       inkscape:color="rgb(0,134,229)" />
    <sodipodi:guide
       position="30,0"
       orientation="-1,0"
       id="guide8"
       inkscape:locked="false"
       inkscape:label=""
       inkscape:color="rgb(0,134,229)" />
  </sodipodi:namedview>
  <mask
     id="path-3-inside-1_2680_191"
     fill="#ffffff">
    <path
       fill-rule="evenodd"
       clip-rule="evenodd"
       d="m 28.3333,17 h -4.6666 v 4.6667 H 19 v 4.6666 h 4.6667 V 31 h 4.6666 V 26.3333 H 33 v -4.6666 h -4.6667 z"
       id="path3" />
  </mask>
  <g
     id="g7"
     inkscape:label="icon"
     transform="matrix(0.95238095,0,0,0.95238095,1.130016,-1.5675495)"
     style="stroke-width:1.05">
    <g
       id="g5"
       inkscape:label="folder"
       style="stroke-width:1.05"
       transform="translate(0,0.19592702)">
      <path
         d="m 1,12.125 v 17.15 C 1,29.9512 1.5488,30.5 2.225,30.5 h 26.95 c 0.6762,0 1.225,-0.5488 1.225,-1.225 v -17.15 z"
         fill="#7597C6"
         id="path2"
         style="fill:#6c97c3;fill-opacity:1;stroke-width:1.05" />
      <path
         d="M 29.175,8.45 H 11.8057 c -0.4005,0 -0.7742,-0.19478 -1.0045,-0.52308 L 9.81878,6.52308 C 9.58848,6.19478 9.21485,6 8.81428,6 H 2.225 C 1.5488,6 1,6.5488 1,7.225 V 10.9 H 30.4 V 9.675 C 30.4,8.9988 29.8512,8.45 29.175,8.45 Z"
         fill="#284161"
         id="path1"
         style="stroke-width:1.05" />
    </g>
    <g
       id="g6"
       inkscape:label="cross"
       style="stroke-width:1.05"
       transform="translate(-0.58651672,1.9643894)">
      <path
         fill-rule="evenodd"
         clip-rule="evenodd"
         d="m 28.3333,17 h -4.6666 v 4.6667 H 19 v 4.6666 h 4.6667 V 31 h 4.6666 V 26.3333 H 33 v -4.6666 h -4.6667 z"
         fill="#12fd1a"
         id="path4"
         style="stroke-width:1.05" />
      <path
         d="m 23.6667,17 v -1 h -1 v 1 z m 4.6666,0 h 1 v -1 h -1 z m -4.6666,4.6667 v 1 h 1 v -1 z m -4.6667,0 v -1 h -1 v 1 z m 0,4.6666 h -1 v 1 h 1 z m 4.6667,0 h 1 v -1 h -1 z m 0,4.6667 h -1 v 1 h 1 z m 4.6666,0 v 1 h 1 v -1 z m 0,-4.6667 v -1 h -1 v 1 z m 4.6667,0 v 1 h 1 v -1 z m 0,-4.6666 h 1 v -1 h -1 z m -4.6667,0 h -1 v 1 h 1 z M 23.6667,18 h 4.6666 v -2 h -4.6666 z m 1,3.6667 V 17 h -2 v 4.6667 z m -5.6667,1 h 4.6667 v -2 H 19 Z m 1,3.6666 v -4.6666 h -2 v 4.6666 z m 3.6667,-1 H 19 v 2 h 4.6667 z m 1,5.6667 v -4.6667 h -2 V 31 Z m 3.6666,-1 h -4.6666 v 2 h 4.6666 z m -1,-3.6667 V 31 h 2 v -4.6667 z m 5.6667,-1 h -4.6667 v 2 H 33 Z m -1,-3.6666 v 4.6666 h 2 v -4.6666 z m -3.6667,1 H 33 v -2 h -4.6667 z m -1,-5.6667 v 4.6667 h 2 V 17 Z"
         fill="#284161"
         mask="url(#path-3-inside-1_2680_191)"
         id="path5"
         style="stroke-width:1.05" />
    </g>
  </g>
</svg>

<svg width="33" height="33" viewBox="0 0 33 33" fill="none" xmlns="http://www.w3.org/2000/svg">
<path d="M29.175 8.45H11.8057C11.4052 8.45 11.0315 8.25522 10.8012 7.92692L9.81878 6.52308C9.58848 6.19478 9.21485 6 8.81428 6H2.225C1.5488 6 1 6.5488 1 7.225V10.9H30.4V9.675C30.4 8.9988 29.8512 8.45 29.175 8.45Z" fill="#284161"/>
<path d="M1 12.125V29.275C1 29.9512 1.5488 30.5 2.225 30.5H29.175C29.8512 30.5 30.4 29.9512 30.4 29.275V12.125H1Z" fill="#7597C6"/>
<mask id="path-3-inside-1_2680_191" fill="white">
<path fill-rule="evenodd" clip-rule="evenodd" d="M28.3333 17H23.6667V21.6667H19V26.3333H23.6667V31H28.3333V26.3333H33V21.6667H28.3333V17Z"/>
</mask>
<path fill-rule="evenodd" clip-rule="evenodd" d="M28.3333 17H23.6667V21.6667H19V26.3333H23.6667V31H28.3333V26.3333H33V21.6667H28.3333V17Z" fill="#12FD1A"/>
<path d="M23.6667 17V16H22.6667V17H23.6667ZM28.3333 17H29.3333V16H28.3333V17ZM23.6667 21.6667V22.6667H24.6667V21.6667H23.6667ZM19 21.6667V20.6667H18V21.6667H19ZM19 26.3333H18V27.3333H19V26.3333ZM23.6667 26.3333H24.6667V25.3333H23.6667V26.3333ZM23.6667 31H22.6667V32H23.6667V31ZM28.3333 31V32H29.3333V31H28.3333ZM28.3333 26.3333V25.3333H27.3333V26.3333H28.3333ZM33 26.3333V27.3333H34V26.3333H33ZM33 21.6667H34V20.6667H33V21.6667ZM28.3333 21.6667H27.3333V22.6667H28.3333V21.6667ZM23.6667 18H28.3333V16H23.6667V18ZM24.6667 21.6667V17H22.6667V21.6667H24.6667ZM19 22.6667H23.6667V20.6667H19V22.6667ZM20 26.3333V21.6667H18V26.3333H20ZM23.6667 25.3333H19V27.3333H23.6667V25.3333ZM24.6667 31V26.3333H22.6667V31H24.6667ZM28.3333 30H23.6667V32H28.3333V30ZM27.3333 26.3333V31H29.3333V26.3333H27.3333ZM33 25.3333H28.3333V27.3333H33V25.3333ZM32 21.6667V26.3333H34V21.6667H32ZM28.3333 22.6667H33V20.6667H28.3333V22.6667ZM27.3333 17V21.6667H29.3333V17H27.3333Z" fill="#284161" mask="url(#path-3-inside-1_2680_191)"/>
</svg>
